X: 49111
T: Josephine Mason of Kinross
C: John Browne
R: strathspey
B: RSCDS 49-11
N: Tune for the dance MacDonald of Keppoch
Z: 2015 John Chambers <jc:trillian.mit.edu>
M: 4/4
L: 1/8
K: D
A |\
"D"f>e d>e "A7"f<a a>A | "F#/D"d>e d<c "G"B3 B |\
"D"A<d d>f "G"e>d "F#/Bm"B>d | "E/A"A<a "G#/E"f>d "A7"e2 ||
d>e |\
"D"f>e "E/A7"d>e "F#/D"f<a a>A | "Am7"d>e "D7"d<c "G"B3 B |\
"D"A<d d>B "Em6"c>d e>c | "A7"A<d d>c "D"d2 |]
d>c |\
"G"B>A G>A "G"B<d "G#dim"d>B | "A/D"A>F A<d "Bm"f3 f |\
"Bm7"e>f e>d "E7"c>d c>B | "A"A>B "E7"c<B "A7"A2 ||
A>d |\
"D"f>e d>e "A7"f<a a>A | "F#/D7"d>e d>c "G"B2 d>B |\
"D"A<d d>f "Em7"e>d c>B | "A7"A<d d>c "D"d3 |]
